images/icon2.svg

<svg width="69" height="69" viewBox="0 0 69 69" fill="none" xmlns="http://www.w3.org/2000/svg">
<path fill-rule="evenodd" clip-rule="evenodd" d="M34.5 69C53.5538 69 69 53.5538 69 34.5C69 15.4462 53.5538 0 34.5 0C15.4462 0 0 15.4462 0 34.5C0 53.5538 15.4462 69 34.5 69Z" fill="#FEDC5A" fill-opacity="0.1"/>
<path d="M36 49H20.16C18.9671 49 18 48.0103 18 46.7895V23.2105C18 21.9897 18.9671 21 20.16 21H36V22.4737H20.16C19.7624 22.4737 19.44 22.8036 19.44 23.2105V46.7895C19.44 47.1964 19.7624 47.5263 20.16 47.5263H36V49Z" fill="#FEDC5A"/>
<path fill-rule="evenodd" clip-rule="evenodd" d="M38 21H49.7895C51.0103 21 52 21.9897 52 23.2105V46.7895C52 48.0103 51.0103 49 49.7895 49H38V21ZM42.4211 41.6316H47.5789C47.9859 41.6316 48.3158 41.3017 48.3158 40.8947C48.3158 40.4878 47.9859 40.1579 47.5789 40.1579H42.4211C42.0141 40.1579 41.6842 40.4878 41.6842 40.8947C41.6842 41.3017 42.0141 41.6316 42.4211 41.6316ZM47.5789 35.7368H42.4211C42.0141 35.7368 41.6842 35.4069 41.6842 35C41.6842 34.5931 42.0141 34.2632 42.4211 34.2632H47.5789C47.9859 34.2632 48.3158 34.5931 48.3158 35C48.3158 35.4069 47.9859 35.7368 47.5789 35.7368ZM42.4211 29.8421H47.5789C47.9859 29.8421 48.3158 29.5122 48.3158 29.1053C48.3158 28.6983 47.9859 28.3684 47.5789 28.3684H42.4211C42.0141 28.3684 41.6842 28.6983 41.6842 29.1053C41.6842 29.5122 42.0141 29.8421 42.4211 29.8421Z" fill="#FEDC5A"/>
</svg>

<svg width="69" height="69" fill="none" xmlns="http://www.w3.org/2000/svg"><path fill-rule="evenodd" clip-rule="evenodd" d="M34.5 69C53.554 69 69 53.554 69 34.5 69 15.446 53.554 0 34.5 0 15.446 0 0 15.446 0 34.5 0 53.554 15.446 69 34.5 69z" fill="#FEDC5A" fill-opacity=".1"/><path d="M36 49H20.16c-1.193 0-2.16-.99-2.16-2.21V23.21c0-1.22.967-2.21 2.16-2.21H36v1.474H20.16c-.398 0-.72.33-.72.736v23.58c0 .406.322.736.72.736H36V49z" fill="#FEDC5A"/><path fill-rule="evenodd" clip-rule="evenodd" d="M38 21h11.79c1.22 0 2.21.99 2.21 2.21v23.58c0 1.22-.99 2.21-2.21 2.21H38V21zm4.421 20.632h5.158a.737.737 0 100-1.474H42.42a.737.737 0 100 1.474zm5.158-5.895H42.42a.737.737 0 110-1.474h5.158a.737.737 0 110 1.474zm-5.158-5.895h5.158a.737.737 0 100-1.474H42.42a.737.737 0 100 1.474z" fill="#FEDC5A"/></svg>
